assets/svg/svgoOutput/search.svg

<svg width="18" height="20" viewBox="0 0 18 20" fill="none" xmlns="http://www.w3.org/2000/svg"><path fill-rule="evenodd" clip-rule="evenodd" d="M12.7091 13.8773L15.9776 17.7128L15.4107 18.2L12.1333 14.3645C11.0054 15.2208 9.73582 15.6489 8.32446 15.6489C7.46819 15.6489 6.64885 15.4821 5.86643 15.1485C5.084 14.8148 4.41081 14.366 3.84684 13.8021C3.28287 13.2381 2.83407 12.5649 2.50046 11.7825C2.16684 11 2.00002 10.1807 2 9.32446C1.99998 8.46821 2.1668 7.64887 2.50046 6.86642C2.83412 6.08398 3.28291 5.41079 3.84684 4.84684C4.41076 4.28289 5.08396 3.8341 5.86643 3.50046C6.64889 3.16682 7.46824 3 8.32446 3C9.18068 3 10 3.16682 10.7825 3.50046C11.565 3.8341 12.2382 4.28289 12.8021 4.84684C13.366 5.41079 13.8148 6.08398 14.1485 6.86642C14.4821 7.64887 14.6489 8.46821 14.6489 9.32446C14.6489 10.2043 14.4777 11.037 14.1352 11.8224C13.7927 12.6078 13.3173 13.2928 12.7091 13.8774L12.7091 13.8773ZM8.32453 14.9048C9.3343 14.9048 10.2673 14.6553 11.1236 14.1563C11.9799 13.6573 12.6575 12.9797 13.1565 12.1235C13.6555 11.2672 13.905 10.3342 13.905 9.32439C13.905 8.31459 13.6555 7.38157 13.1565 6.52532C12.6574 5.66908 11.9798 4.99146 11.1236 4.49248C10.2674 3.9935 9.33435 3.74401 8.32453 3.74401C7.31471 3.74401 6.38168 3.9935 5.52546 4.49248C4.66924 4.99146 3.99163 5.66908 3.49262 6.52532C2.99362 7.38157 2.74413 8.31459 2.74415 9.32439C2.74417 10.3342 2.99366 11.2672 3.49262 12.1235C3.99158 12.9797 4.66919 13.6573 5.52546 14.1563C6.38173 14.6553 7.31475 14.9048 8.32453 14.9048Z" fill="#C4C4C4" stroke="#C4C4C4" stroke-width="1.2" stroke-linejoin="round"/></svg>

<svg width="18" height="20" fill="none" xmlns="http://www.w3.org/2000/svg"><path fill-rule="evenodd" clip-rule="evenodd" d="m12.71 13.877 3.268 3.836-.567.487-3.278-3.835a6.14 6.14 0 0 1-3.809 1.284 6.204 6.204 0 0 1-2.458-.5 6.337 6.337 0 0 1-2.02-1.347 6.335 6.335 0 0 1-1.346-2.02A6.204 6.204 0 0 1 2 9.325c0-.856.167-1.675.5-2.458a6.335 6.335 0 0 1 1.347-2.02A6.334 6.334 0 0 1 5.867 3.5 6.203 6.203 0 0 1 8.323 3c.857 0 1.676.167 2.459.5a6.333 6.333 0 0 1 2.02 1.347 6.336 6.336 0 0 1 1.345 2.02c.334.782.5 1.601.5 2.457 0 .88-.17 1.713-.513 2.498a6.33 6.33 0 0 1-1.426 2.055zm-4.385 1.028c1.01 0 1.942-.25 2.799-.749a5.548 5.548 0 0 0 2.032-2.033c.5-.856.749-1.789.749-2.799s-.25-1.942-.748-2.799a5.549 5.549 0 0 0-2.033-2.033 5.461 5.461 0 0 0-2.8-.748c-1.01 0-1.942.25-2.799.748a5.548 5.548 0 0 0-2.032 2.033 5.461 5.461 0 0 0-.749 2.8c0 1.01.25 1.942.749 2.799a5.547 5.547 0 0 0 2.032 2.032c.857.5 1.79.749 2.8.749z" fill="#C4C4C4" stroke="#C4C4C4" stroke-width="1.2" stroke-linejoin="round"/></svg>
